public/img/Mypage/Vector.svg

<svg width="13" height="15" viewBox="0 0 13 15" fill="none" xmlns="http://www.w3.org/2000/svg">
<path d="M6.8965 11.3568C7.29031 11.3568 7.66799 11.2138 7.94646 10.9592C8.22493 10.7046 8.38137 10.3593 8.38137 9.99924C8.38137 9.63919 8.22493 9.29388 7.94646 9.03928C7.66799 8.78468 7.29031 8.64165 6.8965 8.64165C6.50269 8.64165 6.12501 8.78468 5.84654 9.03928C5.56807 9.29388 5.41163 9.63919 5.41163 9.99924C5.41163 10.3593 5.56807 10.7046 5.84654 10.9592C6.12501 11.2138 6.50269 11.3568 6.8965 11.3568ZM11.3511 5.24767C11.7449 5.24767 12.1226 5.3907 12.4011 5.6453C12.6795 5.8999 12.836 6.24521 12.836 6.60526V13.3932C12.836 13.7533 12.6795 14.0986 12.4011 14.3532C12.1226 14.6078 11.7449 14.7508 11.3511 14.7508H2.4419C2.04809 14.7508 1.67041 14.6078 1.39194 14.3532C1.11347 14.0986 0.957031 13.7533 0.957031 13.3932V6.60526C0.957031 6.24521 1.11347 5.8999 1.39194 5.6453C1.67041 5.3907 2.04809 5.24767 2.4419 5.24767H3.18433V3.89008C3.18433 2.98994 3.57543 2.12666 4.2716 1.49017C4.96777 0.853673 5.91197 0.496094 6.8965 0.496094C7.38399 0.496094 7.8667 0.583882 8.31709 0.754445C8.76747 0.925009 9.17669 1.17501 9.5214 1.49017C9.86611 1.80533 10.1395 2.17948 10.3261 2.59126C10.5127 3.00303 10.6087 3.44437 10.6087 3.89008V5.24767H11.3511ZM6.8965 1.85369C6.30578 1.85369 5.73926 2.06823 5.32156 2.45013C4.90386 2.83203 4.6692 3.34999 4.6692 3.89008V5.24767H9.1238V3.89008C9.1238 3.34999 8.88914 2.83203 8.47144 2.45013C8.05374 2.06823 7.48722 1.85369 6.8965 1.85369Z" fill="#3C332B"/>
</svg>

<svg xmlns="http://www.w3.org/2000/svg" width="13" height="15" fill="none"><path fill="#3C332B" d="M6.897 11.357c.393 0 .771-.143 1.05-.398.278-.254.434-.6.434-.96s-.156-.705-.435-.96a1.56 1.56 0 0 0-1.05-.397c-.393 0-.771.143-1.05.397-.278.255-.434.6-.434.96s.156.706.435.96c.278.255.656.398 1.05.398m4.454-6.11c.394 0 .772.144 1.05.398.279.255.435.6.435.96v6.788c0 .36-.156.706-.435.96a1.56 1.56 0 0 1-1.05.398h-8.91c-.393 0-.77-.143-1.05-.398a1.3 1.3 0 0 1-.434-.96V6.605c0-.36.156-.705.435-.96a1.56 1.56 0 0 1 1.05-.397h.742V3.89c0-.9.391-1.763 1.088-2.4.696-.636 1.64-.994 2.624-.994.488 0 .97.088 1.421.258.45.171.86.421 1.204.736.345.315.618.69.805 1.101s.283.853.283 1.3v1.357zM6.896 1.855c-.59 0-1.157.214-1.574.596s-.653.9-.653 1.44v1.358h4.455V3.89c0-.54-.235-1.058-.653-1.44a2.34 2.34 0 0 0-1.575-.596"/></svg>
